resources/svg/lock-key-light.svg

<svg xmlns="http://www.w3.org/2000/svg" viewBox="0 0 256 256" fill="currentColor"><path d="M127.99414,114a25.99734,25.99734,0,0,0-6,51.29346V184a6,6,0,1,0,12,0V165.29346a25.99734,25.99734,0,0,0-6-51.29346Zm0,40a14,14,0,1,1,14-14A14.01572,14.01572,0,0,1,127.99414,154Zm80-72h-38V52a42,42,0,1,0-84,0V82h-38a14.01572,14.01572,0,0,0-14,14V208a14.01572,14.01572,0,0,0,14,14h160a14.01572,14.01572,0,0,0,14-14V96A14.01572,14.01572,0,0,0,207.99414,82Zm-110-30a30,30,0,1,1,60,0V82h-60Zm112,156a2.002,2.002,0,0,1-2,2h-160a2.002,2.002,0,0,1-2-2V96a2.002,2.002,0,0,1,2-2h160a2.002,2.002,0,0,1,2,2Z"/></svg>

<svg xmlns="http://www.w3.org/2000/svg" viewBox="0 0 256 256" fill="currentColor"><path d="M128,114a26,26,0,0,0-6,51.3V184a6,6,0,0,0,12,0V165.3a26,26,0,0,0-6-51.3Zm0,40a14,14,0,1,1,14-14A14,14,0,0,1,128,154Zm80-72H170V52a42,42,0,0,0-84,0V82H48A14,14,0,0,0,34,96V208a14,14,0,0,0,14,14H208a14,14,0,0,0,14-14V96A14,14,0,0,0,208,82ZM98,52a30,30,0,0,1,60,0V82H98ZM210,208a2,2,0,0,1-2,2H48a2,2,0,0,1-2-2V96a2,2,0,0,1,2-2H208a2,2,0,0,1,2,2Z"/></svg>
